material/.icons/material/deviantart.svg

<svg xmlns="http://www.w3.org/2000/svg" viewBox="0 0 24 24"><path d="M6 6h6l2-4h4v4l-3.5 7H18v5h-6l-2 4H6v-4l3.5-7H6V6z"/></svg>

<?xml version="1.0" encoding="UTF-8"?><!DOCTYPE svg PUBLIC "-//W3C//DTD SVG 1.1//EN" "http://www.w3.org/Graphics/SVG/1.1/DTD/svg11.dtd"><svg xmlns="http://www.w3.org/2000/svg" xmlns:xlink="http://www.w3.org/1999/xlink" version="1.1" id="mdi-deviantart" width="24" height="24" viewBox="0 0 24 24"><path d="M6,6H12L14,2H18V6L14.5,13H18V18H12L10,22H6V18L9.5,11H6V6Z" /></svg>
